places/scalable/folder-green-mega.svg

<svg xmlns="http://www.w3.org/2000/svg" style="isolation:isolate" width="256" height="256"><path d="M53.039 21C16.724 21 13 23.055 13 59.371v52.167h230V79.563c0-36.316-3.724-42.102-40.039-42.102h-89.336L97.198 21H53.039z" fill="#28851E"/><path d="M53.039 70.384C16.722 70.384 13 74.114 13 110.429v84.524C13 231.269 16.722 235 53.039 235h149.922c36.317 0 40.039-3.731 40.039-40.047V93.969c0-36.316-3.722-40.047-40.039-40.047H119.53l-16.438 16.462H53.039z" fill="#76C22B"/><linearGradient id="a" y1=".5" x2="0" y2="-.5" gradientTransform="matrix(230 0 0 181.078 13 53.922)" gradientUnits="userSpaceOnUse"><stop offset="0%" stop-opacity=".07" stop-color="#fff"/><stop offset="67.282%" stop-opacity="0" stop-color="#fcefe8"/></linearGradient><path d="M53.039 70.384C16.722 70.384 13 74.114 13 110.429v84.524C13 231.269 16.722 235 53.039 235h149.922c36.317 0 40.039-3.731 40.039-40.047V93.969c0-36.316-3.722-40.047-40.039-40.047H119.53l-16.438 16.462H53.039z" fill="url(#a)"/><g opacity=".4"><radialGradient id="b" fx=".5" fy=".136" cx=".5" cy=".5" r=".272" gradientTransform="matrix(230 0 0 60.62 13 21)" gradientUnits="userSpaceOnUse"><stop offset="0%" stop-color="#fff"/><stop offset="100%" stop-opacity=".204" stop-color="#fff"/></radialGradient><path d="M53.039 21C16.724 21 13 23.055 13 59.371v2.059c0-36.316 3.724-38.373 40.039-38.373h44.159l16.427 16.461h89.336c36.315 0 40.039 5.786 40.039 42.102v-2.057c0-36.316-3.724-42.102-40.039-42.102h-89.336L97.198 21H53.039z" fill="url(#b)"/></g><g opacity=".4"><radialGradient id="c" fx=".482" fy=".211" cx=".5" cy=".5" r=".272" gradientTransform="matrix(230 0 0 58.565 13 53.922)" gradientUnits="userSpaceOnUse"><stop offset="0%" stop-color="#fff"/><stop offset="100%" stop-opacity=".204" stop-color="#fff"/></radialGradient><path d="M119.53 53.922l-16.438 16.462H53.039C16.724 70.384 13 74.112 13 110.427v2.06c0-36.316 3.724-40.046 40.039-40.046h50.053l16.438-16.46h83.431c36.315 0 40.039 3.727 40.039 40.043v-2.057c0-36.316-3.724-40.045-40.039-40.045H119.53z" fill="url(#c)"/></g><path d="M243 167.096l-65.715 65.845h25.676c36.315 0 40.039-3.727 40.039-40.043v-25.802z" fill="#FFF" opacity=".1"/><path d="M13 192.898v2.057C13 231.271 16.724 235 53.039 235h149.922c36.315 0 40.039-3.729 40.039-40.045v-2.057c0 36.316-3.724 40.043-40.039 40.043H53.039c-36.315 0-40.039-3.727-40.039-40.043z" opacity=".2"/><g opacity=".62"><path d="M128 92c-33.138 0-60 26.862-60 60 0 33.138 26.862 60 60 60 33.138 0 60-26.862 60-60 0-33.138-26.862-60-60-60zm31.146 81.217c0 1.03-.831 1.86-1.86 1.86h-7.836c-1.029 0-1.86-.83-1.86-1.86v-24.139c0-.199-.232-.299-.398-.166l-16.602 16.602c-1.428 1.428-3.785 1.428-5.213 0l-16.602-16.602c-.133-.133-.399-.033-.399.166v24.139c0 1.03-.83 1.86-1.859 1.86h-7.836c-1.03 0-1.86-.83-1.86-1.86v-42.434c0-1.03.83-1.86 1.86-1.86h5.379c.963 0 1.926.399 2.623 1.096l20.653 20.653a.903.903 0 0 0 1.295 0l20.653-20.653a3.694 3.694 0 0 1 2.623-1.096h5.379c1.029 0 1.86.83 1.86 1.86v42.434z" fill="#FFF"/></g></svg>

<?xml version="1.0" standalone="no"?><!-- Generator: Gravit.io -->
<svg xmlns="http://www.w3.org/2000/svg" 
  xmlns:xlink="http://www.w3.org/1999/xlink" style="isolation:isolate" viewBox="0 0 256 256" width="256" height="256">
  <switch>
    <g>
      <g id="folder">
        <path d=" M 53.039 21 C 16.724 21 13 23.055 13 59.371 L 13 111.538 L 243 111.538 L 243 79.563 C 243 43.247 239.276 37.461 202.961 37.461 L 113.625 37.461 L 97.198 21 L 53.039 21 Z " id="orange" fill="#28851E"/>
        <path d=" M 53.039 70.384 C 16.722 70.384 13 74.114 13 110.429 L 13 194.953 C 13 231.269 16.722 235 53.039 235 L 202.961 235 C 239.278 235 243 231.269 243 194.953 L 243 93.969 C 243 57.653 239.278 53.922 202.961 53.922 L 119.53 53.922 L 103.092 70.384 L 53.039 70.384 Z " id="change-color-easy" fill="#76C22B"/>
        <linearGradient id="_lgradient_23" x1="0" y1="0.5" x2="2.83276944882399e-16" y2="-0.5" gradientTransform="matrix(230,0,0,181.078,13,53.922)" gradientUnits="userSpaceOnUse">
          <stop offset="0%" stop-opacity="0.07" style="stop-color:rgb(255,255,255)"/>
          <stop offset="67.28219512106674%" stop-opacity="0" style="stop-color:rgb(252,239,232)"/>
        </linearGradient>
        <path d=" M 53.039 70.384 C 16.722 70.384 13 74.114 13 110.429 L 13 194.953 C 13 231.269 16.722 235 53.039 235 L 202.961 235 C 239.278 235 243 231.269 243 194.953 L 243 93.969 C 243 57.653 239.278 53.922 202.961 53.922 L 119.53 53.922 L 103.092 70.384 L 53.039 70.384 Z " id="gradient white" fill="url(#_lgradient_23)"/>
        <g opacity="0.4">
          <radialGradient id="_rgradient_45" fx="0.5000000213726793" fy="0.13577386516315215" cx="0.5" cy="0.5" r="0.27154159375000003" gradientTransform="matrix(230,0,0,60.62,13,21)" gradientUnits="userSpaceOnUse">
            <stop offset="0%" stop-opacity="1" style="stop-color:rgb(255,255,255)"/>
            <stop offset="100%" stop-opacity="0.20392157" style="stop-color:rgb(255,255,255)"/>
          </radialGradient>
          <path d=" M 53.039 21 C 16.724 21 13 23.055 13 59.371 L 13 61.43 C 13 25.114 16.724 23.057 53.039 23.057 L 97.198 23.057 L 113.625 39.518 L 202.961 39.518 C 239.276 39.518 243 45.304 243 81.62 L 243 79.563 C 243 43.247 239.276 37.461 202.961 37.461 L 113.625 37.461 L 97.198 21 L 53.039 21 Z " id="white" fill="url(#_rgradient_45)"/>
        </g>
        <g opacity="0.4">
          <radialGradient id="_rgradient_46" fx="0.48214287810452355" fy="0.2108154047287485" cx="0.5" cy="0.5" r="0.27154159375" gradientTransform="matrix(230,0,0,58.565,13,53.922)" gradientUnits="userSpaceOnUse">
            <stop offset="0%" stop-opacity="1" style="stop-color:rgb(255,255,255)"/>
            <stop offset="100%" stop-opacity="0.20392157" style="stop-color:rgb(255,255,255)"/>
          </radialGradient>
          <path d=" M 119.53 53.922 L 103.092 70.384 L 53.039 70.384 C 16.724 70.384 13 74.112 13 110.427 L 13 112.487 C 13 76.171 16.724 72.441 53.039 72.441 L 103.092 72.441 L 119.53 55.981 L 202.961 55.981 C 239.276 55.981 243 59.708 243 96.024 L 243 93.967 C 243 57.651 239.276 53.922 202.961 53.922 L 119.53 53.922 Z " id="white" fill="url(#_rgradient_46)"/>
        </g>
        <g opacity="0.1">
          <path d=" M 243 167.096 L 177.285 232.941 L 202.961 232.941 C 239.276 232.941 243 229.214 243 192.898 L 243 167.096 Z " id="white" fill="rgb(255,255,255)"/>
        </g>
        <g opacity="0.2">
          <path d=" M 13 192.898 L 13 194.955 C 13 231.271 16.724 235 53.039 235 L 202.961 235 C 239.276 235 243 231.271 243 194.955 L 243 192.898 C 243 229.214 239.276 232.941 202.961 232.941 L 53.039 232.941 C 16.724 232.941 13 229.214 13 192.898 Z " id="dark" fill="rgb(0,0,0)"/>
        </g>
      </g>
      <g opacity="0.62">
        <path d=" M 128 92 C 94.862 92 68 118.862 68 152 C 68 185.138 94.862 212 128 212 C 161.138 212 188 185.138 188 152 C 188 118.862 161.138 92 128 92 Z  M 159.146 173.217 C 159.146 174.247 158.315 175.077 157.286 175.077 L 149.45 175.077 C 148.421 175.077 147.59 174.247 147.59 173.217 L 147.59 149.078 C 147.59 148.879 147.358 148.779 147.192 148.912 L 130.59 165.514 C 129.162 166.942 126.805 166.942 125.377 165.514 L 108.775 148.912 C 108.642 148.779 108.376 148.879 108.376 149.078 L 108.376 173.217 C 108.376 174.247 107.546 175.077 106.517 175.077 L 98.681 175.077 C 97.651 175.077 96.821 174.247 96.821 173.217 L 96.821 130.783 C 96.821 129.753 97.651 128.923 98.681 128.923 L 104.06 128.923 C 105.023 128.923 105.986 129.322 106.683 130.019 L 127.336 150.672 C 127.701 151.037 128.266 151.037 128.631 150.672 L 149.284 130.019 C 149.981 129.322 150.911 128.923 151.907 128.923 L 157.286 128.923 C 158.315 128.923 159.146 129.753 159.146 130.783 L 159.146 173.217 L 159.146 173.217 Z " id="mega" fill="#FFFFFF"/>
      </g>
    </g>
  </switch>
</svg>
